icons/settings.svg

<svg width="24" height="24" viewBox="0 0 24 24" fill="none" xmlns="http://www.w3.org/2000/svg">
<path fill-rule="evenodd" clip-rule="evenodd" d="M11.2929 1.29289C11.6834 0.902369 12.3166 0.902369 12.7071 1.29289L15.4142 4H19C19.5523 4 20 4.44772 20 5V8.58579L22.7071 11.2929C23.0976 11.6834 23.0976 12.3166 22.7071 12.7071L20 15.4142V19C20 19.5523 19.5523 20 19 20H15.4142L12.7071 22.7071C12.3166 23.0976 11.6834 23.0976 11.2929 22.7071L8.58579 20H5C4.44772 20 4 19.5523 4 19V15.4142L1.29289 12.7071C0.902369 12.3166 0.902369 11.6834 1.29289 11.2929L4 8.58579V5C4 4.44772 4.44772 4 5 4H8.58579L11.2929 1.29289ZM12 3.41421L9.70711 5.70711C9.51957 5.89464 9.26522 6 9 6H6V9C6 9.26522 5.89464 9.51957 5.70711 9.70711L3.41421 12L5.70711 14.2929C5.89464 14.4804 6 14.7348 6 15V18H9C9.26522 18 9.51957 18.1054 9.70711 18.2929L12 20.5858L14.2929 18.2929C14.4804 18.1054 14.7348 18 15 18H18V15C18 14.7348 18.1054 14.4804 18.2929 14.2929L20.5858 12L18.2929 9.70711C18.1054 9.51957 18 9.26522 18 9V6H15C14.7348 6 14.4804 5.89464 14.2929 5.70711L12 3.41421ZM12 10C10.8954 10 10 10.8954 10 12C10 13.1046 10.8954 14 12 14C13.1046 14 14 13.1046 14 12C14 10.8954 13.1046 10 12 10ZM8 12C8 9.79086 9.79086 8 12 8C14.2091 8 16 9.79086 16 12C16 14.2091 14.2091 16 12 16C9.79086 16 8 14.2091 8 12Z" fill="black"/>
</svg>

<svg
  width="24"
  height="24"
  viewBox="0 0 24 24"
  xmlns="http://www.w3.org/2000/svg"
>
  <path
    fill-rule="evenodd"
    clip-rule="evenodd"
    d="M11.293 1.293a1 1 0 0 1 1.414 0L15.414 4H19a1 1 0 0 1 1 1v3.586l2.707 2.707a1 1 0 0 1 0 1.414L20 15.414V19a1 1 0 0 1-1 1h-3.586l-2.707 2.707a1 1 0 0 1-1.414 0L8.586 20H5a1 1 0 0 1-1-1v-3.586l-2.707-2.707a1 1 0 0 1 0-1.414L4 8.586V5a1 1 0 0 1 1-1h3.586l2.707-2.707zM12 3.414L9.707 5.707A1 1 0 0 1 9 6H6v3a1 1 0 0 1-.293.707L3.414 12l2.293 2.293A1 1 0 0 1 6 15v3h3a1 1 0 0 1 .707.293L12 20.586l2.293-2.293A1 1 0 0 1 15 18h3v-3a1 1 0 0 1 .293-.707L20.586 12l-2.293-2.293A1 1 0 0 1 18 9V6h-3a1 1 0 0 1-.707-.293L12 3.414zM12 10a2 2 0 1 0 0 4 2 2 0 0 0 0-4zm-4 2a4 4 0 1 1 8 0 4 4 0 0 1-8 0z"
  />
</svg>
